src/assets/outline/FilterEdit.svg

<svg width="24" height="24" viewBox="0 0 24 24"  xmlns="http://www.w3.org/2000/svg">
<path d="M10.9298 22.7495C10.4498 22.7495 9.96985 22.6296 9.52985 22.3896C8.63985 21.8896 8.1098 20.9995 8.1098 19.9895V14.6396C8.1098 14.1296 7.77979 13.3795 7.46979 12.9895L3.6698 8.99954C3.0398 8.36954 2.5498 7.26953 2.5498 6.45953V4.13956C2.5498 2.52956 3.76982 1.26953 5.31982 1.26953H18.6598C20.1898 1.26953 21.4298 2.50955 21.4298 4.03955V6.25955C21.4298 7.30955 20.7998 8.51953 20.1998 9.10953C19.9098 9.39953 19.4298 9.39953 19.1398 9.10953C18.8498 8.81953 18.8498 8.33953 19.1398 8.04953C19.5098 7.67953 19.9298 6.84955 19.9298 6.25955V4.03955C19.9298 3.33955 19.3598 2.76953 18.6598 2.76953H5.31982C4.60982 2.76953 4.0498 3.36956 4.0498 4.13956V6.45953C4.0498 6.82953 4.34981 7.55955 4.73981 7.94955L8.58984 11.9995C9.09984 12.6295 9.59979 13.6896 9.59979 14.6396V19.9895C9.59979 20.6495 10.0498 20.9695 10.2498 21.0795C10.6798 21.3195 11.1898 21.3095 11.5898 21.0695L12.9898 20.1696C13.3398 19.9496 13.7998 20.0495 14.0298 20.3995C14.2498 20.7495 14.1498 21.2095 13.8098 21.4395L12.3998 22.3495C11.9498 22.6095 11.4398 22.7495 10.9298 22.7495Z" />
<path d="M13.6902 18.8898C13.3102 18.8898 12.9502 18.7497 12.6902 18.4897C12.3802 18.1797 12.2402 17.7297 12.3102 17.2597L12.5002 15.9097C12.5502 15.5597 12.7602 15.1497 13.0102 14.8997L16.5502 11.3597C17.0302 10.8797 17.5002 10.6297 18.0102 10.5797C18.6302 10.5197 19.2502 10.7797 19.8302 11.3597C20.4102 11.9397 20.6702 12.5497 20.6102 13.1797C20.5602 13.6797 20.3002 14.1598 19.8302 14.6398L16.2902 18.1797C16.0402 18.4297 15.6202 18.6397 15.2702 18.6897L13.9202 18.8797C13.8402 18.8897 13.7702 18.8898 13.6902 18.8898ZM18.1802 12.0597C18.1702 12.0597 18.1602 12.0597 18.1502 12.0597C18.0102 12.0697 17.8202 12.1897 17.6102 12.4097L14.0702 15.9498C14.0402 15.9798 13.9902 16.0797 13.9902 16.1197L13.8102 17.3697L15.0602 17.1897C15.1002 17.1797 15.2002 17.1297 15.2302 17.0997L18.7702 13.5597C18.9802 13.3497 19.1102 13.1597 19.1202 13.0197C19.1402 12.8197 18.9402 12.5797 18.7702 12.4097C18.6102 12.2497 18.3802 12.0597 18.1802 12.0597Z" />
<path d="M18.7897 15.3603C18.7197 15.3603 18.6498 15.3503 18.5898 15.3303C17.2698 14.9603 16.2197 13.9103 15.8497 12.5903C15.7397 12.1903 15.9697 11.7803 16.3697 11.6603C16.7697 11.5503 17.1797 11.7803 17.2897 12.1803C17.5197 13.0003 18.1697 13.6503 18.9897 13.8803C19.3897 13.9903 19.6198 14.4103 19.5098 14.8103C19.4198 15.1503 19.1197 15.3603 18.7897 15.3603Z" />
</svg>

<?xml version="1.0" encoding="UTF-8"?>
<svg width="24" height="24" viewBox="0 0 24 24" xmlns="http://www.w3.org/2000/svg">
 <path d="m10.93 22.75c-0.48 0-0.95995-0.1199-1.4-0.3599-0.89-0.5-1.42-1.3901-1.42-2.4001v-5.3499c0-0.51-0.33001-1.2601-0.64001-1.6501l-3.8-3.99c-0.63-0.63-1.12-1.73-1.12-2.54v-2.32c0-1.61 1.22-2.87 2.77-2.87h13.34c1.53 0 2.77 1.24 2.77 2.77v2.22c0 1.05-0.63 2.26-1.23 2.85-0.29 0.29-0.77 0.29-1.06 0s-0.29-0.77 0-1.06c0.37-0.37 0.79-1.2 0.79-1.79v-2.22c0-0.7-0.57-1.27-1.27-1.27h-13.34c-0.71 0-1.27 0.60003-1.27 1.37v2.32c0 0.37 0.30001 1.1 0.69001 1.49l3.85 4.05c0.51 0.63 1.01 1.6901 1.01 2.6401v5.3499c0 0.66 0.45001 0.98 0.65001 1.09 0.43 0.24 0.94 0.23 1.34-0.01l1.4-0.8999c0.35-0.22 0.81-0.1201 1.04 0.2299 0.22 0.35 0.12 0.81-0.22 1.04l-1.41 0.91c-0.45 0.26-0.96 0.4-1.47 0.4z"/>
 <path d="m13.69 18.89c-0.38 0-0.74-0.1401-1-0.4001-0.31-0.31-0.45-0.76-0.38-1.23l0.19-1.35c0.05-0.35 0.26-0.76 0.51-1.01l3.54-3.54c0.48-0.48 0.95-0.73 1.46-0.78 0.62-0.06 1.24 0.2 1.82 0.78s0.84 1.19 0.78 1.82c-0.05 0.5-0.31 0.9801-0.78 1.4601l-3.54 3.5399c-0.25 0.25-0.67 0.46-1.02 0.51l-1.35 0.19c-0.08 0.01-0.15 0.0101-0.23 0.0101zm4.49-6.8301h-0.03c-0.14 0.01-0.33 0.13-0.54 0.35l-3.54 3.5401c-0.03 0.03-0.08 0.1299-0.08 0.1699l-0.18 1.25 1.25-0.18c0.04-0.01 0.14-0.06 0.17-0.09l3.54-3.54c0.21-0.21 0.34-0.4 0.35-0.54 0.02-0.2-0.18-0.44-0.35-0.61-0.16-0.16-0.39-0.35-0.59-0.35z"/>
 <path d="m18.79 15.36c-0.07 0-0.1399-0.01-0.1999-0.03-1.32-0.37-2.3701-1.42-2.7401-2.74-0.11-0.4 0.12-0.81 0.52-0.93 0.4-0.11 0.81 0.12 0.92 0.52 0.23 0.82 0.88 1.47 1.7 1.7 0.4 0.11 0.6301 0.53 0.5201 0.93-0.09 0.34-0.3901 0.55-0.7201 0.55z"/>
</svg>
